src/shared/_assets/icons/copy.svg

<svg width="12" height="14" viewBox="0 0 12 14" fill="none" xmlns="http://www.w3.org/2000/svg">
<path d="M4 10.6667C3.63333 10.6667 3.31944 10.5361 3.05833 10.275C2.79722 10.0139 2.66667 9.7 2.66667 9.33333V1.33333C2.66667 0.966667 2.79722 0.652778 3.05833 0.391667C3.31944 0.130556 3.63333 0 4 0H10C10.3667 0 10.6806 0.130556 10.9417 0.391667C11.2028 0.652778 11.3333 0.966667 11.3333 1.33333V9.33333C11.3333 9.7 11.2028 10.0139 10.9417 10.275C10.6806 10.5361 10.3667 10.6667 10 10.6667H4ZM4 9.33333H10V1.33333H4V9.33333ZM1.33333 13.3333C0.966667 13.3333 0.652778 13.2028 0.391667 12.9417C0.130556 12.6806 0 12.3667 0 12V2.66667H1.33333V12H8.66667V13.3333H1.33333ZM4 9.33333V1.33333V9.33333Z" fill="#A1A1A1"/>
</svg>

<svg xmlns="http://www.w3.org/2000/svg" fill="none" viewBox="0 0 12 14"><path fill="currentColor" d="M4 10.667q-.55 0-.942-.392a1.28 1.28 0 0 1-.391-.942v-8q0-.55.391-.941Q3.45 0 4 0h6q.55 0 .942.392.39.391.391.941v8q0 .55-.391.942a1.28 1.28 0 0 1-.942.392zm0-1.334h6v-8H4zm-2.667 4q-.55 0-.941-.391A1.28 1.28 0 0 1 0 12V2.667h1.333V12h7.334v1.333zm2.667-4v-8z"/></svg>
